X:7
T:Песнь 8
M:4/4
L:1/4
Q:1/4=120
K:F
V:1 clef=treble name="Soprano"
%%MIDI program 40
V:2 clef=treble name="Alto"
%%MIDI program 40
V:3 clef=bass octave=-1 name="Tenor"
%%MIDI program 40
V:4 clef=bass octave=-2 name="Bass"
%%MIDI program 40
%%score [(1 2) (3 4)]
%%tempo { 40, 60, *80, 100, 120, 140 }
%%player_top
[V:1]AAAB(cd)cB/A/G2 | EFG2GGGFEG
s: "Песнь 8"
[V:2]FFFG(AB)AG/F/E2 | CDE2EEEDCD
w:Чу-да пре-ес-тест--вен-на--го ро-со-да-тель-на-яи-зо-бра-
[V:3]ccccf2fcc2 | ccc2cccccc
[V:4]fffff2ffc2 | ccc2cccccc
[V:1]GA(B/A/G)A2 | ABc2ABc2cdcB/A/G2 |
[V:2]EF(G/F/E)F2 | FGA2FGA2ABAG/F/E2 |
w:зи пещь об---раз; не бо, я-же при-ят, па-лит ю-ны--я,
[V:3]c2c2c2 |ccf2ccf2fffcc2 |
[V:4]c2c2f2 | fff2fff2ffffc2 |
[V:1]EEEFGFGA(B/A/G)A2 | ABc2cd(cB/A/)G2 |
[V:2]^CCCDEDEF(G/F/E)F2 | FGA2AB(AG/F/)E2 |
w:я-ко ни-же огнь Бо-жест-ва Де---вы, вНю-же вни-де у-тро---бу.
[V:3]AAAAAAAcc2c2 | ccf2ff(fc)c2 |
[V:4]AAAAAAAcc2f2 | fff2fff2c2 |
[V:1]G2GAB2BAG/A/BA2 | AGABc2
[V:2]E2EFG2GFE/F/GF2 | FEFGA2
w:Тем вос-пе-ва-ю-ще вос--по-им: да бла-го-сло-вит
[V:3]c2ccc2ccccc2 | ccccf2
[V:4]c2ccc2ccccf2 | fcfff2
[V:1]cBA2A2B2 | GGABAGA(B2G2)A4 |]
[V:2]AG^F2F2G2 | EEFGFEF(G2E2)F4 |]
w:тварь вся Го-спо-да, и пре-воз-но-сит во вся ве--ки.
[V:3]fdd2d2d2 | cccccccc4c4 |]
[V:4]fgd2d2g2 | cccccccc4F4 |]
%%newpage
